X: 1
T: Grahamsay
M: 6/8
L: 1/8
R: jig
K: Dmaj
|:A3 BAF|A2  B d2 e|faa baf|efe edB|
A3 BAF|A2  B d2 e|faf e2 d|d3 d3:|
|:ABd B2 A|ABd B2 A|faa baf|efe edB|
ABd B2 A|ABd B2 A|faf e2 d|d3 d3:|
